images/fronting-logo-AIG.svg

<svg height="170pt" viewBox="0 0 941 483" width="331pt" xmlns="http://www.w3.org/2000/svg"><g fill="#233776"><path d="m2.39 2.04c186.54-.24 373.08-.04 559.61-.1 105.67 0 211.33-.01 317 0v474.06c-292.2-.02-584.39.04-876.58-.03.01-157.98.05-315.96-.03-473.93m36.61 36.46v400.74c267.75.01 535.49.01 803.24 0 .01-133.58.01-267.16 0-400.73-267.74-.02-535.49-.01-803.24-.01z"/><path d="m617.04 102c24.89-3.45 50.83-.9 74.11 8.82 22.32 9.27 40.52 25.96 56.5 43.71-9.52 9.36-19.3 18.45-28.85 27.78-11.19-14.89-25.26-28.08-42.39-35.8-17.88-8.27-38.37-9.7-57.6-6.11-34.36 6.18-63.76 32.94-74.33 66.03-5.34 17.23-6.12 35.78-2.93 53.49 3.31 17.63 11.9 34.21 24.46 47.02 13.53 13.93 30.48 25.07 49.5 29.69 16.96 4.08 35.31 3.18 51.45-3.67 13.27-5.62 24.96-14.76 34.01-25.95 8.16-10.19 13.24-22.74 14.6-35.72-22.11-.13-44.23.05-66.34-.09.04-12.65 0-25.3.02-37.95 36.75-.02 73.49.01 110.24-.01.13 18.97-.7 38.17-5.58 56.6-4.67 18.52-14.99 35.27-28.06 49.06-11.92 12.58-26.41 22.85-42.54 29.28-19.71 7.97-41.41 10.11-62.47 8.25-21.57-1.89-42.62-9.37-60.46-21.65-27.94-19.27-49.73-48.34-57.49-81.64-5.56-23.92-5.15-49.26 1.34-72.95 8.84-32.02 30.74-59.55 58.19-77.82 16.32-10.87 35.21-17.74 54.62-20.37z"/><path d="m97.83 372c41.3-88.77 82.57-177.55 123.96-266.27 5.18.04 10.36.03 15.54 0 39.92 88.73 79.72 177.51 119.58 266.27-14.83-.09-29.67.19-44.5-.14-9.02-21.54-18.49-42.89-27.68-64.36-37.89 0-75.77.01-113.65 0-9.86 21.44-19.78 42.85-29.49 64.35-14.58.34-29.17.06-43.76.15m130.95-192.12c-13.52 29.93-27.37 59.7-40.84 89.64 24.05-.05 48.09 0 72.14-.02 2.73-.05 5.48.19 8.19-.22-13.06-29.32-25.67-58.86-38.65-88.22-.21-.29-.63-.88-.84-1.18z"/><path d="m398.48 371.97c.06-88.74-.03-177.49.05-266.23 13.41.03 26.82-.01 40.23.02-.01 88.75-.01 177.49 0 266.23-13.43 0-26.85.04-40.28-.02z"/><path d="m915.48 438.65c6.57-1.89 14.07.07 18.82 5.01 7.01 7.11 6.73 20.16-.85 26.77-6.02 5.8-16.04 6.44-23.01 1.99-5.54-3.4-8.91-9.96-8.48-16.45-.11-7.98 5.88-15.33 13.52-17.32m.91 2.94c-8.91 2.33-13.4 13.36-9.59 21.52 2.74 6.95 11.05 10.96 18.19 8.65 8.98-2.51 13.39-13.87 9.29-22.04-2.88-6.67-10.99-10.34-17.89-8.13z"/><path d="m913.24 445.76c4.43.3 9.11-.77 13.37.77 5.08 2.51 3.35 11.47-2.54 11.62 2.05 3.1 4.09 6.22 6.07 9.39-1.03-.03-3.07-.08-4.09-.1-1.78-2.81-3.5-5.65-5.34-8.41-.72-1.33-2.53-.58-3.69-.85-.03 3.11-.04 6.21-.02 9.33-1.27-.02-2.52-.03-3.76-.02.01-7.25 0-14.49 0-21.73m3.76 3c-.01 2.16-.01 4.31 0 6.48 2.32-.06 4.71.28 6.99-.35 2.58-.73 2.63-5.1-.01-5.8-2.27-.64-4.66-.26-6.98-.33z"/></g></svg>

<?xml version="1.0" encoding="UTF-8" ?>
<!DOCTYPE svg PUBLIC "-//W3C//DTD SVG 1.1//EN" "http://www.w3.org/Graphics/SVG/1.1/DTD/svg11.dtd">
<svg width="331pt" height="170pt" viewBox="0 0 941 483" version="1.1" xmlns="http://www.w3.org/2000/svg">
<g id="transparent">
</g>
<g id="navyblue">
<path fill="#233776" opacity="1.00" d=" M 2.39 2.04 C 188.93 1.80 375.47 2.00 562.00 1.94 C 667.67 1.94 773.33 1.93 879.00 1.94 C 879.00 159.96 879.00 317.98 879.00 476.00 C 586.80 475.98 294.61 476.04 2.42 475.97 C 2.43 317.99 2.47 160.01 2.39 2.04 M 39.00 38.50 C 39.00 172.08 39.00 305.66 39.00 439.24 C 306.75 439.25 574.49 439.25 842.24 439.24 C 842.25 305.66 842.25 172.08 842.24 38.51 C 574.50 38.49 306.75 38.50 39.00 38.50 Z" />
<path fill="#233776" opacity="1.00" d=" M 617.04 102.00 C 641.93 98.55 667.87 101.10 691.15 110.82 C 713.47 120.09 731.67 136.78 747.65 154.53 C 738.13 163.89 728.35 172.98 718.80 182.31 C 707.61 167.42 693.54 154.23 676.41 146.51 C 658.53 138.24 638.04 136.81 618.81 140.40 C 584.45 146.58 555.05 173.34 544.48 206.43 C 539.14 223.66 538.36 242.21 541.55 259.92 C 544.86 277.55 553.45 294.13 566.01 306.94 C 579.54 320.87 596.49 332.01 615.51 336.63 C 632.47 340.71 650.82 339.81 666.96 332.96 C 680.23 327.34 691.92 318.20 700.97 307.01 C 709.13 296.82 714.21 284.27 715.57 271.29 C 693.46 271.16 671.34 271.34 649.23 271.20 C 649.27 258.55 649.23 245.90 649.25 233.25 C 686.00 233.23 722.74 233.26 759.49 233.24 C 759.62 252.21 758.79 271.41 753.91 289.84 C 749.24 308.36 738.92 325.11 725.85 338.90 C 713.93 351.48 699.44 361.75 683.31 368.18 C 663.60 376.15 641.90 378.29 620.84 376.43 C 599.27 374.54 578.22 367.06 560.38 354.78 C 532.44 335.51 510.65 306.44 502.89 273.14 C 497.33 249.22 497.74 223.88 504.23 200.19 C 513.07 168.17 534.97 140.64 562.42 122.37 C 578.74 111.50 597.63 104.63 617.04 102.00 Z" />
<path fill="#233776" opacity="1.00" d=" M 97.83 372.00 C 139.13 283.23 180.40 194.45 221.79 105.73 C 226.97 105.77 232.15 105.76 237.33 105.73 C 277.25 194.46 317.05 283.24 356.91 372.00 C 342.08 371.91 327.24 372.19 312.41 371.86 C 303.39 350.32 293.92 328.97 284.73 307.50 C 246.84 307.50 208.96 307.51 171.08 307.50 C 161.22 328.94 151.30 350.35 141.59 371.85 C 127.01 372.19 112.42 371.91 97.83 372.00 M 228.78 179.88 C 215.26 209.81 201.41 239.58 187.94 269.52 C 211.99 269.47 236.03 269.52 260.08 269.50 C 262.81 269.45 265.56 269.69 268.27 269.28 C 255.21 239.96 242.60 210.42 229.62 181.06 C 229.41 180.77 228.99 180.18 228.78 179.88 Z" />
<path fill="#233776" opacity="1.00" d=" M 398.48 371.97 C 398.54 283.23 398.45 194.48 398.53 105.74 C 411.94 105.77 425.35 105.73 438.76 105.76 C 438.75 194.51 438.75 283.25 438.76 371.99 C 425.33 371.99 411.91 372.03 398.48 371.97 Z" />
<path fill="#233776" opacity="1.00" d=" M 915.48 438.65 C 922.05 436.76 929.55 438.72 934.30 443.66 C 941.31 450.77 941.03 463.82 933.45 470.43 C 927.43 476.23 917.41 476.87 910.44 472.42 C 904.90 469.02 901.53 462.46 901.96 455.97 C 901.85 447.99 907.84 440.64 915.48 438.65 M 916.39 441.59 C 907.48 443.92 902.99 454.95 906.80 463.11 C 909.54 470.06 917.85 474.07 924.99 471.76 C 933.97 469.25 938.38 457.89 934.28 449.72 C 931.40 443.05 923.29 439.38 916.39 441.59 Z" />
<path fill="#233776" opacity="1.00" d=" M 913.24 445.76 C 917.67 446.06 922.35 444.99 926.61 446.53 C 931.69 449.04 929.96 458.00 924.07 458.15 C 926.12 461.25 928.16 464.37 930.14 467.54 C 929.11 467.51 927.07 467.46 926.05 467.44 C 924.27 464.63 922.55 461.79 920.71 459.03 C 919.99 457.70 918.18 458.45 917.02 458.18 C 916.99 461.29 916.98 464.39 917.00 467.51 C 915.73 467.49 914.48 467.48 913.24 467.49 C 913.25 460.24 913.24 453.00 913.24 445.76 M 917.00 448.76 C 916.99 450.92 916.99 453.07 917.00 455.24 C 919.32 455.18 921.71 455.52 923.99 454.89 C 926.57 454.16 926.62 449.79 923.98 449.09 C 921.71 448.45 919.32 448.83 917.00 448.76 Z" />
</g>
</svg>
